openmetadata-ui/src/main/resources/ui/src/assets/svg/creating-ingestion.svg

<svg width="32" height="32" viewBox="0 0 32 32" fill="none" xmlns="http://www.w3.org/2000/svg">
<path d="M27.3137 4.68625C24.2917 1.66431 20.2738 0 16 0C11.7262 0 7.70825 1.66431 4.68625 4.68625C1.66431 7.70825 0 11.7262 0 16C0 20.2738 1.66431 24.2917 4.68631 27.3137C4.91038 27.5378 5.21962 27.6241 5.50981 27.5738C5.51025 27.5739 5.51044 27.5743 5.511 27.5742L13.0859 26.2476C13.2758 26.2143 13.4508 26.1234 13.5871 25.9871L25.7695 13.8046C26.1356 13.4385 26.1356 12.8449 25.7695 12.4788L19.5204 6.22969C19.1543 5.86356 18.5607 5.86356 18.1946 6.22969L6.01213 18.4121C5.87575 18.5484 5.78481 18.7235 5.75156 18.9134L4.76319 24.5609C2.89006 22.1129 1.875 19.1346 1.875 16C1.875 8.21144 8.21144 1.875 16 1.875C23.7886 1.875 30.125 8.21144 30.125 16C30.125 23.7886 23.7886 30.125 16 30.125C15.4823 30.125 15.0625 30.5448 15.0625 31.0625C15.0625 31.5802 15.4823 32 16 32C20.2738 32 24.2917 30.3357 27.3137 27.3137C30.3357 24.2917 32 20.2738 32 16C32 11.7262 30.3357 7.70825 27.3137 4.68625ZM7.28756 21.0134L10.9861 24.7118L6.50294 25.497L7.28756 21.0134ZM12.9241 23.9983L11.1258 22.2L21.9824 11.3434L23.7807 13.1418L12.9241 23.9983ZM18.8574 8.21844L20.6566 10.0176L9.8 20.8742L8.00088 19.075L18.8574 8.21844Z" fill="white"/>
</svg>

<svg xmlns="http://www.w3.org/2000/svg" width="32" height="32" fill="none"><path fill="#fff" d="M27.314 4.686A15.895 15.895 0 0 0 16 0 15.895 15.895 0 0 0 4.686 4.686 15.895 15.895 0 0 0 0 16c0 4.274 1.664 8.292 4.686 11.314.224.224.534.31.824.26h.001l7.575-1.326a.938.938 0 0 0 .501-.26L25.77 13.804a.937.937 0 0 0 0-1.326l-6.25-6.25a.937.937 0 0 0-1.325 0L6.012 18.413a.937.937 0 0 0-.26.501l-.989 5.648A14.017 14.017 0 0 1 1.875 16C1.875 8.211 8.211 1.875 16 1.875S30.125 8.211 30.125 16 23.789 30.125 16 30.125A.938.938 0 0 0 16 32c4.274 0 8.292-1.664 11.314-4.686A15.895 15.895 0 0 0 32 16c0-4.274-1.664-8.292-4.686-11.314ZM7.288 21.013l3.698 3.699-4.483.785.785-4.484Zm5.636 2.985L11.126 22.2l10.856-10.857 1.799 1.799-10.857 10.856Zm5.933-15.78 1.8 1.8L9.8 20.874 8 19.075 18.858 8.218Z"/></svg>
